X:222
T: SEID LUSTIG IHR BRUEDER
N: E1361
O: Europa, Mitteleuropa, Deutschland, Ober - Rhein
R: Staende -, Soldaten -, Kriegs - Lied
M: 3/8
L: 1/16
K: C
C2 | C2E2E2 | D2F2z2 |
D2F2F2 | EDEFG2 |
E2D2E2 | G4F2 |
D2F3G | E4

@@@ Tune index: 4906
